build/svg/cmd/sc_insertpagecountfield.svg

<?xml version="1.0" encoding="UTF-8" standalone="no"?>
<svg
   xmlns:dc="http://purl.org/dc/elements/1.1/"
   xmlns:cc="http://creativecommons.org/ns#"
   xmlns:rdf="http://www.w3.org/1999/02/22-rdf-syntax-ns#"
   xmlns:svg="http://www.w3.org/2000/svg"
   xmlns="http://www.w3.org/2000/svg"
   xmlns:sodipodi="http://sodipodi.sourceforge.net/DTD/sodipodi-0.dtd"
   xmlns:inkscape="http://www.inkscape.org/namespaces/inkscape"
   viewBox="0 0 16 16"
   version="1.1"
   id="svg4"
   sodipodi:docname="sc_insertpagecountfield.svg"
   inkscape:export-filename="/home/jupiter007/Libreoffice yaru theme fullcolor/build/cmd/sc_insertpagecountfield.png"
   inkscape:export-xdpi="95"
   inkscape:export-ydpi="95"
   inkscape:version="0.92.5 (2060ec1f9f, 2020-04-08)"><metadata
   id="metadata10">
  <rdf:RDF>
    <cc:Work
       rdf:about="">
      <dc:format>image/svg+xml</dc:format>
      <dc:type
         rdf:resource="http://purl.org/dc/dcmitype/StillImage" />
    </cc:Work>
  </rdf:RDF>
</metadata>
<defs
   id="defs8" />
<sodipodi:namedview
   pagecolor="#ffffff"
   bordercolor="#666666"
   borderopacity="1"
   objecttolerance="10"
   gridtolerance="10"
   guidetolerance="10"
   inkscape:pageopacity="0"
   inkscape:pageshadow="2"
   inkscape:window-width="1920"
   inkscape:window-height="1011"
   id="namedview6"
   showgrid="true"
   inkscape:zoom="29.5"
   inkscape:cx="5.1347372"
   inkscape:cy="8.8407856"
   inkscape:window-x="0"
   inkscape:window-y="32"
   inkscape:window-maximized="1"
   inkscape:current-layer="svg4">
  <inkscape:grid
     type="xygrid"
     id="grid835" />
</sodipodi:namedview>
/&gt;<path
   sodipodi:nodetypes="ccccccccc"
   style="opacity:0.6;fill:#000000;stroke:#000000;stroke-width:2;stroke-linejoin:round;stroke-miterlimit:4;stroke-dasharray:none"
   id="path815"
   d="M 3.0000001,12 V 3.9999997 c 0,-2 1,-2 2.9999998,-2 h 4 l 3.0000001,3 V 12 c 0,2 -1,2 -3.0000001,2 h -4 C 4.0000001,14 3.0000001,14 3.0000001,12 Z"
   inkscape:connector-curvature="0" />
<path
   inkscape:connector-curvature="0"
   d="M 3.0000001,12 V 3.9999997 c 0,-2 1,-2 2.9999998,-2 h 4 l 3.0000001,3 V 12 c 0,2 -1,2 -3.0000001,2 h -4 C 4.0000001,14 3.0000001,14 3.0000001,12 Z"
   id="path2-1"
   style="fill:#ffffff"
   sodipodi:nodetypes="ccccccccc" />
<path
   inkscape:connector-curvature="0"
   d="m 9.9999999,4.9999997 v -3 l 3.0000001,3 z"
   id="path4"
   style="fill:#6d6d6d;fill-opacity:1" />
<path
   sodipodi:nodetypes="cccccccccccccccccccccccccccccccccc"
   style="opacity:0.8;fill:#ffffff;fill-opacity:1;stroke:#ffffff;stroke-width:2;stroke-linejoin:round;stroke-miterlimit:4;stroke-dasharray:none"
   inkscape:connector-curvature="0"
   id="path858"
   d="m 7.9999999,8.0000004 v 1 h -1 V 10 h 1 v 2 h -1 v 1 h 1 v 1 h 1 V 13 H 11 v 1 h 1 v -1 h 1 v -1 h -1 v -2 h 1 V 9.0000004 h -1 v -1 h -1 v 1 H 8.9999999 v -1 z m 1,1.9999996 H 11 v 2 H 8.9999999 Z" />
<path
   d="m 4.0000001,2.0000004 v 1 h -1 v 1 h 1 V 6 h -1 v 1 h 1 v 1 h 1 V 7 h 1.9999998 v 1 h 1 V 7 h 1 V 6 h -1 V 4.0000004 h 1 v -1 h -1 v -1 h -1 v 1 H 5.0000001 v -1 z m 1,2 H 6.9999999 V 6 H 5.0000001 Z"
   id="path860"
   inkscape:connector-curvature="0"
   style="opacity:0.8;fill:#ffffff;fill-opacity:1;stroke:#ffffff;stroke-width:2;stroke-linejoin:round;stroke-miterlimit:4;stroke-dasharray:none"
   sodipodi:nodetypes="cccccccccccccccccccccccccccccccccc" />
<path
   d="m 7.9999999,8.0000004 v 1 h -1 V 10 h 1 v 2 h -1 v 1 h 1 v 1 h 1 V 13 H 11 v 1 h 1 v -1 h 1 v -1 h -1 v -2 h 1 V 9.0000004 h -1 v -1 h -1 v 1 H 8.9999999 v -1 z m 1,1.9999996 H 11 v 2 H 8.9999999 Z"
   id="path2"
   inkscape:connector-curvature="0"
   style="fill:#1a7fd4;fill-opacity:1"
   sodipodi:nodetypes="cccccccccccccccccccccccccccccccccc" />
<path
   sodipodi:nodetypes="cccccccccccccccccccccccccccccccccc"
   style="fill:#1a7fd4;fill-opacity:1"
   inkscape:connector-curvature="0"
   id="path852"
   d="m 4.0000001,2.0000004 v 1 h -1 v 1 h 1 V 6 h -1 v 1 h 1 v 1 h 1 V 7 h 1.9999998 v 1 h 1 V 7 h 1 V 6 h -1 V 4.0000004 h 1 v -1 h -1 v -1 h -1 v 1 H 5.0000001 v -1 z m 1,2 H 6.9999999 V 6 H 5.0000001 Z" />
</svg>

<svg xmlns="http://www.w3.org/2000/svg" viewBox="0 0 16 16">/&gt;<path d="M3 12V4c0-2 1-2 3-2h4l3 3v7c0 2-1 2-3 2H6c-2 0-3 0-3-2z" opacity=".6" stroke="#000" stroke-width="2" stroke-linejoin="round"/><path d="M3 12V4c0-2 1-2 3-2h4l3 3v7c0 2-1 2-3 2H6c-2 0-3 0-3-2z" fill="#fff"/><path d="M10 5V2l3 3z" fill="#6d6d6d"/><path d="M8 8v1H7v1h1v2H7v1h1v1h1v-1h2v1h1v-1h1v-1h-1v-2h1V9h-1V8h-1v1H9V8zm1 2h2v2H9zM4 2v1H3v1h1v2H3v1h1v1h1V7h2v1h1V7h1V6H8V4h1V3H8V2H7v1H5V2zm1 2h2v2H5z" opacity=".8" fill="#fff" stroke="#fff" stroke-width="2" stroke-linejoin="round"/><path d="M8 8v1H7v1h1v2H7v1h1v1h1v-1h2v1h1v-1h1v-1h-1v-2h1V9h-1V8h-1v1H9V8zm1 2h2v2H9zM4 2v1H3v1h1v2H3v1h1v1h1V7h2v1h1V7h1V6H8V4h1V3H8V2H7v1H5V2zm1 2h2v2H5z" fill="#1a7fd4"/></svg>
